Newaita-dark/actions/22/document-export.svg

<svg height="22" viewBox="0 0 22 22" width="22" xmlns="http://www.w3.org/2000/svg"><g fill="#e0e0e0"><path d="m3.632812 1.992188c-1.007812 0-1.816406.808593-1.816406 1.816406v14.554687c0 1.007813.808594 1.820313 1.816406 1.820313h10.917969c1.007813 0 1.816407-.8125 1.816407-1.820313v-.910156h-1.816407c0 .503906-.40625.910156-.910156.910156h-9.097656c-.503907 0-.910157-.40625-.910157-.910156v-12.734375c0-.503906.40625-.910156.910157-.910156h3.640625v-.003906h3.261718l3.109376 3.109374v.535157h1.808593v-.910157c0-.238281-.09375-.46875-.265625-.640624l-3.636718-3.636719c-.171876-.171875-.402344-.265625-.640626-.265625h-3.636718v-.003906zm0 0"/><path d="m15.917969 11.542969v1.816406h-4.535157c-.253906 0-.457031-.203125-.457031-.453125v-.910156c0-.25.203125-.453125.457031-.453125zm0 0"/><path d="m15.464844 15.636719v-6.367188l4.546875 3.183594zm0 0"/></g></svg>

<?xml version="1.0" encoding="UTF-8"?>
<svg xmlns="http://www.w3.org/2000/svg" xmlns:xlink="http://www.w3.org/1999/xlink" width="22px" height="22px" viewBox="0 0 22 22" version="1.1">
<g id="surface1">
<path style=" stroke:none;fill-rule:nonzero;fill:rgb(87.843138%,87.843138%,87.843138%);fill-opacity:1;" d="M 3.632812 1.992188 C 2.625 1.992188 1.816406 2.800781 1.816406 3.808594 L 1.816406 18.363281 C 1.816406 19.371094 2.625 20.183594 3.632812 20.183594 L 14.550781 20.183594 C 15.558594 20.183594 16.367188 19.371094 16.367188 18.363281 L 16.367188 17.453125 L 14.550781 17.453125 C 14.550781 17.957031 14.144531 18.363281 13.640625 18.363281 L 4.542969 18.363281 C 4.039062 18.363281 3.632812 17.957031 3.632812 17.453125 L 3.632812 4.71875 C 3.632812 4.214844 4.039062 3.808594 4.542969 3.808594 L 8.183594 3.808594 L 8.183594 3.804688 L 11.445312 3.804688 L 14.554688 6.914062 L 14.554688 7.449219 L 16.363281 7.449219 L 16.363281 6.539062 C 16.363281 6.300781 16.269531 6.070312 16.097656 5.898438 L 12.460938 2.261719 C 12.289062 2.089844 12.058594 1.996094 11.820312 1.996094 L 8.183594 1.996094 L 8.183594 1.992188 Z M 3.632812 1.992188 "/>
<path style=" stroke:none;fill-rule:nonzero;fill:rgb(87.843138%,87.843138%,87.843138%);fill-opacity:1;" d="M 15.917969 11.542969 L 15.917969 13.359375 L 11.382812 13.359375 C 11.128906 13.359375 10.925781 13.15625 10.925781 12.90625 L 10.925781 11.996094 C 10.925781 11.746094 11.128906 11.542969 11.382812 11.542969 Z M 15.917969 11.542969 "/>
<path style=" stroke:none;fill-rule:nonzero;fill:rgb(87.843138%,87.843138%,87.843138%);fill-opacity:1;" d="M 15.464844 15.636719 L 15.464844 9.269531 L 20.011719 12.453125 Z M 15.464844 15.636719 "/>
</g>
</svg>
